; generated by PrusaSlicer 2.9.4 on 2025-12-27 at 07:31:25 UTC

; 

; external perimeters extrusion width = 0.45mm
; perimeters extrusion width = 0.45mm
; infill extrusion width = 0.45mm
; solid infill extrusion width = 0.45mm
; top infill extrusion width = 0.40mm
; first layer extrusion width = 0.70mm

M104 S200 ; set temperature
;TYPE:Custom
G28 ; home all axes
G1 Z5 F5000 ; lift nozzle
M109 S200 ; set temperature and wait for it to be reached
G21 ; set units to millimeters
G90 ; use absolute coordinates
M82 ; use absolute distances for extrusion
G92 E0
; Filament gcode
M107
;LAYER_CHANGE
;Z:0.35
;HEIGHT:0.35
G1 E-2 F2400
G92 E0
G1 Z.35 F7800
G1 X65.225 Y65.871
G1 E2 F2400
;TYPE:Skirt/Brim
;WIDTH:0.7
G1 F1800
G1 X66.966 Y64.465 E2.20349
G1 X70 Y63.688 E2.48827
G1 X150 Y63.688 E9.76264
G1 X152.203 Y64.084 E9.96617
G1 X154.129 Y65.225 E10.16973
G1 X155.535 Y66.966 E10.37322
G1 X156.312 Y70 E10.658
G1 X156.312 Y150 E17.93237
G1 X155.916 Y152.203 E18.1359
G1 X154.775 Y154.129 E18.33946
G1 X153.034 Y155.535 E18.54295
G1 X150 Y156.312 E18.82773
G1 X70 Y156.312 E26.1021
G1 X67.797 Y155.916 E26.30563
G1 X65.871 Y154.775 E26.50919
G1 X64.465 Y153.034 E26.71268
G1 X63.688 Y150 E26.99746
G1 X63.688 Y70 E34.27183
G1 X64.084 Y67.797 E34.47536
G1 X65.194 Y65.923 E34.67341
G1 E32.67341 F2400
G92 E0
G92 E0
G1 X148.4 Y148.4 F7800
G1 E2 F2400
;TYPE:Perimeter
;WIDTH:0.7
G1 F1800
G1 X71.6 Y148.4 E8.98339
G1 X71.6 Y71.6 E15.96678
G1 X148.4 Y71.6 E22.95017
G1 X148.4 Y148.34 E29.9281
G1 X149.025 Y149.025 F7800
G1 F1800
G1 X70.975 Y149.025 E37.02515
G1 X70.975 Y70.975 E44.1222
G1 X149.025 Y70.975 E51.21925
G1 X149.025 Y148.965 E58.31084
G1 X149.65 Y149.65 F7800
;TYPE:External perimeter
G1 F1800
G1 X70.35 Y149.65 E65.52155
G1 X70.35 Y70.35 E72.73226
G1 X149.65 Y70.35 E79.94297
G1 X149.65 Y149.59 E87.14823
G1 X149.254 Y149.649 F7800
G1 E85.14823 F2400
G92 E0
G1 X148.213 Y73.051 F7800
G1 E2 F2400
;TYPE:Solid infill
;WIDTH:0.700373
G1 F1800
G1 X147.23 Y72.068 E2.12648
G1 X146.346 Y72.068 E2.20691
G1 X147.932 Y73.654 E2.41098
G1 X147.932 Y74.539 E2.4915
G1 X145.461 Y72.068 E2.80944
G1 X144.577 Y72.068 E2.88987
G1 X147.932 Y75.423 E3.32156
G1 X147.932 Y76.307 E3.40199
G1 X143.693 Y72.068 E3.94742
G1 X142.809 Y72.068 E4.02785
G1 X147.932 Y77.191 E4.68703
G1 X147.932 Y78.076 E4.76755
G1 X141.924 Y72.068 E5.5406
G1 X141.04 Y72.068 E5.62103
G1 X147.932 Y78.96 E6.50783
G1 X147.932 Y79.844 E6.58826
G1 X140.156 Y72.068 E7.5888
G1 X139.272 Y72.068 E7.66923
G1 X147.932 Y80.728 E8.78352
G1 X147.932 Y81.613 E8.86404
G1 X138.387 Y72.068 E10.0922
G1 X137.503 Y72.068 E10.17263
G1 X147.932 Y82.497 E11.51453
G1 X147.932 Y83.381 E11.59496
G1 X136.619 Y72.068 E13.05061
G1 X135.735 Y72.068 E13.13104
G1 X147.932 Y84.265 E14.70043
G1 X147.932 Y85.15 E14.78095
G1 X134.85 Y72.068 E16.46422
G1 X133.966 Y72.068 E16.54465
G1 X147.932 Y86.034 E18.34166
G1 X147.932 Y86.918 E18.42209
G1 X133.082 Y72.068 E20.33285
G1 X132.198 Y72.068 E20.41328
G1 X147.932 Y87.802 E22.43778
G1 X147.932 Y88.687 E22.5183
G1 X131.313 Y72.068 E24.65668
G1 X130.429 Y72.068 E24.73711
G1 X147.932 Y89.571 E26.98923
G1 X147.932 Y90.455 E27.06966
G1 X129.545 Y72.068 E29.43553
G1 X128.661 Y72.068 E29.51596
G1 X147.932 Y91.339 E31.99557
G1 X147.932 Y92.224 E32.07609
G1 X127.776 Y72.068 E34.66957
G1 X126.892 Y72.068 E34.75
G1 X147.932 Y93.108 E37.45723
G1 X147.932 Y93.992 E37.53766
G1 X126.008 Y72.068 E40.35863
G1 X125.124 Y72.068 E40.43906
G1 X147.932 Y94.876 E43.37378
G1 X147.932 Y95.761 E43.4543
G1 X124.239 Y72.068 E46.50289
G1 X123.355 Y72.068 E46.58332
G1 X147.932 Y96.645 E49.74566
G1 X147.932 Y97.529 E49.82609
G1 X122.471 Y72.068 E53.10217
G1 X121.587 Y72.068 E53.1826
G1 X147.932 Y98.413 E56.57243
G1 X147.932 Y99.298 E56.65295
G1 X120.702 Y72.068 E60.15665
G1 X119.818 Y72.068 E60.23708
G1 X147.932 Y100.182 E63.85452
G1 X147.932 Y101.066 E63.93495
G1 X118.934 Y72.068 E67.66614
G1 X118.05 Y72.068 E67.74657
G1 X147.932 Y101.95 E71.5915
G1 X147.932 Y102.835 E71.67202
G1 X117.165 Y72.068 E75.63083
G1 X116.281 Y72.068 E75.71126
G1 X147.932 Y103.719 E79.78381
G1 X147.932 Y104.603 E79.86424
G1 X115.397 Y72.068 E84.05054
G1 X114.513 Y72.068 E84.13097
G1 X147.932 Y105.487 E88.43101
G1 X147.932 Y106.372 E88.51153
G1 X113.628 Y72.068 E92.92544
G1 X112.744 Y72.068 E93.00587
G1 X147.932 Y107.256 E97.53353
G1 X147.932 Y108.14 E97.61396
G1 X111.86 Y72.068 E102.25536
G1 X110.976 Y72.068 E102.33579
G1 X147.932 Y109.024 E107.09094
G1 X147.932 Y109.909 E107.17146
G1 X110.091 Y72.068 E112.04048
G1 X109.207 Y72.068 E112.12091
G1 X147.932 Y110.793 E117.10368
G1 X147.932 Y111.677 E117.18411
G1 X108.323 Y72.068 E122.28062
G1 X107.439 Y72.068 E122.36105
G1 X147.932 Y112.561 E127.57131
G1 X147.932 Y113.446 E127.65183
G1 X106.554 Y72.068 E132.97596
G1 X105.67 Y72.068 E133.05639
G1 X147.932 Y114.33 E138.49426
G1 X147.932 Y115.214 E138.57469
G1 X104.786 Y72.068 E144.12631
G1 X103.902 Y72.068 E144.20674
G1 X147.932 Y116.098 E149.8721
G1 X147.932 Y116.983 E149.95262
G1 X103.017 Y72.068 E155.73186
G1 X102.133 Y72.068 E155.81229
G1 X147.932 Y117.867 E161.70527
G1 X147.932 Y118.751 E161.7857
G1 X101.249 Y72.068 E167.79243
G1 X100.365 Y72.068 E167.87286
G1 X147.932 Y119.635 E173.99333
G1 X147.932 Y120.52 E174.07385
G1 X99.48 Y72.068 E180.30819
G1 X98.596 Y72.068 E180.38862
G1 X147.932 Y121.404 E186.73671
G1 X147.932 Y122.288 E186.81714
G1 X97.712 Y72.068 E193.27897
G1 X96.828 Y72.068 E193.3594
G1 X147.932 Y123.172 E199.93498
G1 X147.932 Y124.057 E200.0155
G1 X95.943 Y72.068 E206.70495
G1 X95.059 Y72.068 E206.78538
G1 X147.932 Y124.941 E213.58858
G1 X147.932 Y125.825 E213.66901
G1 X94.175 Y72.068 E220.58595
G1 X93.291 Y72.068 E220.66638
G1 X147.932 Y126.71 E227.69713
G1 X147.932 Y127.594 E227.77756
G1 X92.406 Y72.068 E234.92212
G1 X91.522 Y72.068 E235.00255
G1 X147.932 Y128.478 E242.26085
G1 X147.932 Y129.362 E242.34128
G1 X90.638 Y72.068 E249.71333
G1 X89.753 Y72.068 E249.79385
G1 X147.932 Y130.247 E257.27977
G1 X147.932 Y131.131 E257.3602
G1 X88.869 Y72.068 E264.95987
G1 X87.985 Y72.068 E265.0403
G1 X147.932 Y132.015 E272.75371
G1 X147.932 Y132.899 E272.83414
G1 X87.101 Y72.068 E280.6613
G1 X86.216 Y72.068 E280.74182
G1 X147.932 Y133.784 E288.68285
G1 X147.932 Y134.668 E288.76328
G1 X85.332 Y72.068 E296.81806
G1 X84.448 Y72.068 E296.89849
G1 X147.932 Y135.552 E305.06701
G1 X147.932 Y136.436 E305.14744
G1 X83.564 Y72.068 E313.4297
G1 X82.679 Y72.068 E313.51022
G1 X147.932 Y137.321 E321.90636
G1 X147.932 Y138.205 E321.98679
G1 X81.795 Y72.068 E330.49667
G1 X80.911 Y72.068 E330.5771
G1 X147.932 Y139.089 E339.20073
G1 X147.932 Y139.973 E339.28116
G1 X80.027 Y72.068 E348.01853
G1 X79.142 Y72.068 E348.09905
G1 X147.932 Y140.858 E356.9503
G1 X147.932 Y141.742 E357.03073
G1 X78.258 Y72.068 E365.99572
G1 X77.374 Y72.068 E366.07615
G1 X147.932 Y142.626 E375.15489
G1 X147.932 Y143.51 E375.23532
G1 X76.49 Y72.068 E384.4278
G1 X75.605 Y72.068 E384.50832
G1 X147.932 Y144.395 E393.81467
G1 X147.932 Y145.279 E393.8951
G1 X74.721 Y72.068 E403.3152
G1 X73.837 Y72.068 E403.39563
G1 X147.932 Y146.163 E412.92947
G1 X147.932 Y147.047 E413.0099
G1 X72.953 Y72.068 E422.65749
G1 X72.068 Y72.068 E422.73801
G1 X147.932 Y147.932 E432.49947
G1 X147.047 Y147.932 E432.57999
G1 X72.068 Y72.953 E442.22758
G1 X72.068 Y73.837 E442.30801
G1 X146.163 Y147.932 E451.84185
G1 X145.279 Y147.932 E451.92228
G1 X72.068 Y74.721 E461.34238
G1 X72.068 Y75.606 E461.4229
G1 X144.395 Y147.932 E470.72919
G1 X143.51 Y147.932 E470.80971
G1 X72.068 Y76.49 E480.00219
G1 X72.068 Y77.374 E480.08262
G1 X142.626 Y147.932 E489.16136
G1 X141.742 Y147.932 E489.24179
G1 X72.068 Y78.258 E498.20678
G1 X72.068 Y79.143 E498.2873
G1 X140.857 Y147.932 E507.13842
G1 X139.973 Y147.932 E507.21885
G1 X72.068 Y80.027 E515.95622
G1 X72.068 Y80.911 E516.03665
G1 X139.089 Y147.932 E524.66028
G1 X138.205 Y147.932 E524.74071
G1 X72.068 Y81.795 E533.25059
G1 X72.068 Y82.68 E533.33111
G1 X137.32 Y147.932 E541.72712
G1 X136.436 Y147.932 E541.80755
G1 X72.068 Y83.564 E550.08981
G1 X72.068 Y84.448 E550.17024
G1 X135.552 Y147.932 E558.33876
G1 X134.668 Y147.932 E558.41919
G1 X72.068 Y85.332 E566.47397
G1 X72.068 Y86.217 E566.55449
G1 X133.783 Y147.932 E574.49539
G1 X132.899 Y147.932 E574.57582
G1 X72.068 Y87.101 E582.40298
G1 X72.068 Y87.985 E582.48341
G1 X132.015 Y147.932 E590.19682
G1 X131.131 Y147.932 E590.27725
G1 X72.068 Y88.869 E597.87692
G1 X72.068 Y89.754 E597.95744
G1 X130.246 Y147.932 E605.44323
G1 X129.362 Y147.932 E605.52366
G1 X72.068 Y90.638 E612.89571
G1 X72.068 Y91.522 E612.97614
G1 X128.478 Y147.932 E620.23444
G1 X127.594 Y147.932 E620.31487
G1 X72.068 Y92.406 E627.45943
G1 X72.068 Y93.291 E627.53995
G1 X126.709 Y147.932 E634.57064
G1 X125.825 Y147.932 E634.65107
G1 X72.068 Y94.175 E641.56801
G1 X72.068 Y95.059 E641.64844
G1 X124.941 Y147.932 E648.45164
G1 X124.057 Y147.932 E648.53207
G1 X72.068 Y95.943 E655.22152
G1 X72.068 Y96.828 E655.30204
G1 X123.172 Y147.932 E661.87762
G1 X122.288 Y147.932 E661.95805
G1 X72.068 Y97.712 E668.41988
G1 X72.068 Y98.596 E668.50031
G1 X121.404 Y147.932 E674.8484
G1 X120.52 Y147.932 E674.92883
G1 X72.068 Y99.48 E681.16317
G1 X72.068 Y100.365 E681.24369
G1 X119.635 Y147.932 E687.36416
G1 X118.751 Y147.932 E687.44459
G1 X72.068 Y101.249 E693.45132
G1 X72.068 Y102.133 E693.53175
G1 X117.867 Y147.932 E699.42473
G1 X116.983 Y147.932 E699.50516
G1 X72.068 Y103.017 E705.2844
G1 X72.068 Y103.902 E705.36492
G1 X116.098 Y147.932 E711.03028
G1 X115.214 Y147.932 E711.11071
G1 X72.068 Y104.786 E716.66233
G1 X72.068 Y105.67 E716.74276
G1 X114.33 Y147.932 E722.18063
G1 X113.446 Y147.932 E722.26106
G1 X72.068 Y106.554 E727.58519
G1 X72.068 Y107.439 E727.66571
G1 X112.561 Y147.932 E732.87597
G1 X111.677 Y147.932 E732.9564
G1 X72.068 Y108.323 E738.05291
G1 X72.068 Y109.207 E738.13334
G1 X110.793 Y147.932 E743.11611
G1 X109.909 Y147.932 E743.19654
G1 X72.068 Y110.091 E748.06556
G1 X72.068 Y110.976 E748.14608
G1 X109.024 Y147.932 E752.90123
G1 X108.14 Y147.932 E752.98166
G1 X72.068 Y111.86 E757.62306
G1 X72.068 Y112.744 E757.70349
G1 X107.256 Y147.932 E762.23115
G1 X106.372 Y147.932 E762.31158
G1 X72.068 Y113.628 E766.72549
G1 X72.068 Y114.513 E766.80601
G1 X105.487 Y147.932 E771.10605
G1 X104.603 Y147.932 E771.18648
G1 X72.068 Y115.397 E775.37278
G1 X72.068 Y116.281 E775.45321
G1 X103.719 Y147.932 E779.52576
G1 X102.835 Y147.932 E779.60619
G1 X72.068 Y117.165 E783.565
G1 X72.068 Y118.05 E783.64552
G1 X101.95 Y147.932 E787.49045
G1 X101.066 Y147.932 E787.57088
G1 X72.068 Y118.934 E791.30207
G1 X72.068 Y119.818 E791.3825
G1 X100.182 Y147.932 E794.99994
G1 X99.298 Y147.932 E795.08037
G1 X72.068 Y120.702 E798.58407
G1 X72.068 Y121.587 E798.66459
G1 X98.413 Y147.932 E802.05442
G1 X97.529 Y147.932 E802.13485
G1 X72.068 Y122.471 E805.41093
G1 X72.068 Y123.355 E805.49136
G1 X96.645 Y147.932 E808.6537
G1 X95.761 Y147.932 E808.73413
G1 X72.068 Y124.239 E811.78272
G1 X72.068 Y125.124 E811.86324
G1 X94.876 Y147.932 E814.79796
G1 X93.992 Y147.932 E814.87839
G1 X72.068 Y126.008 E817.69936
G1 X72.068 Y126.892 E817.77979
G1 X93.108 Y147.932 E820.48702
G1 X92.224 Y147.932 E820.56745
G1 X72.068 Y127.776 E823.16093
G1 X72.068 Y128.661 E823.24145
G1 X91.339 Y147.932 E825.72106
G1 X90.455 Y147.932 E825.80149
G1 X72.068 Y129.545 E828.16736
G1 X72.068 Y130.429 E828.24779
G1 X89.571 Y147.932 E830.49991
G1 X88.687 Y147.932 E830.58034
G1 X72.068 Y131.314 E832.71865
G1 X72.068 Y132.198 E832.79908
G1 X87.802 Y147.932 E834.82358
G1 X86.918 Y147.932 E834.90401
G1 X72.068 Y133.082 E836.81477
G1 X72.068 Y133.966 E836.8952
G1 X86.034 Y147.932 E838.69221
G1 X85.149 Y147.932 E838.77273
G1 X72.068 Y134.851 E840.45587
G1 X72.068 Y135.735 E840.5363
G1 X84.265 Y147.932 E842.10569
G1 X83.381 Y147.932 E842.18612
G1 X72.068 Y136.619 E843.64177
G1 X72.068 Y137.503 E843.7222
G1 X82.497 Y147.932 E845.0641
G1 X81.612 Y147.932 E845.14462
G1 X72.068 Y138.388 E846.37265
G1 X72.068 Y139.272 E846.45308
G1 X80.728 Y147.932 E847.56737
G1 X79.844 Y147.932 E847.6478
G1 X72.068 Y140.156 E848.64834
G1 X72.068 Y141.04 E848.72877
G1 X78.96 Y147.932 E849.61557
G1 X78.075 Y147.932 E849.69609
G1 X72.068 Y141.925 E850.46901
G1 X72.068 Y142.809 E850.54944
G1 X77.191 Y147.932 E851.20862
G1 X76.307 Y147.932 E851.28905
G1 X72.068 Y143.693 E851.83448
G1 X72.068 Y144.577 E851.91491
G1 X75.423 Y147.932 E852.3466
G1 X74.538 Y147.932 E852.42712
G1 X72.068 Y145.462 E852.74494
G1 X72.068 Y146.346 E852.82537
G1 X73.654 Y147.932 E853.02944
G1 X72.77 Y147.932 E853.10987
G1 X71.787 Y146.949 E853.23635
;LAYER_CHANGE
;Z:0.55
;HEIGHT:0.2
G1 E851.23635 F2400
G92 E0
G1 Z.55 F7800
G1 X148.961 Y148.961
G1 E2 F2400
;TYPE:Perimeter
;WIDTH:0.449999
G1 F3000
G1 X71.039 Y148.961 E4.63756
G1 X71.039 Y71.039 E7.27512
G1 X148.961 Y71.039 E9.91268
G1 X148.961 Y148.901 E12.54821
G1 X149.368 Y149.368 F7800
G1 F3000
G1 X70.632 Y149.368 E15.21333
G1 X70.632 Y70.632 E17.87845
G1 X149.368 Y70.632 E20.54357
G1 X149.368 Y149.308 E23.20666
G1 X149.775 Y149.775 F7800
;TYPE:External perimeter
G1 F1500
G1 X70.225 Y149.775 E25.89933
G1 X70.225 Y70.225 E28.592
G1 X149.775 Y70.225 E31.28467
G1 X149.775 Y149.715 E33.97531
G1 X149.379 Y149.774 F7800
G1 E31.97531 F2400
G92 E0
G1 X71.455 Y71.377 F7800
G1 E2 F2400
;TYPE:Solid infill
;WIDTH:0.548766
G1 F1200
G1 X71.41 Y71.333 E2.00265
G1 X71.349 Y71.349 E2.0053
G1 X71.333 Y71.41 E2.00795
G1 X71.377 Y71.455 E2.0106
G1 X71.439 Y71.439 E2.01329
;WIDTH:0.449999
G1 X71.344 Y72.089 E2.03553
G1 X72.089 Y71.344 E2.07119
G1 X72.664 Y71.344 E2.09065
G1 X71.344 Y72.664 E2.15384
G1 X71.344 Y73.24 E2.17334
G1 X73.24 Y71.344 E2.2641
G1 X73.816 Y71.344 E2.2836
G1 X71.344 Y73.816 E2.40193
G1 X71.344 Y74.392 E2.42143
G1 X74.392 Y71.344 E2.56734
G1 X74.967 Y71.344 E2.5868
G1 X71.344 Y74.967 E2.76023
G1 X71.344 Y75.543 E2.77973
G1 X75.543 Y71.344 E2.98073
G1 X76.119 Y71.344 E3.00023
G1 X71.344 Y76.119 E3.22881
G1 X71.344 Y76.694 E3.24827
G1 X76.694 Y71.344 E3.50437
G1 X77.27 Y71.344 E3.52387
G1 X71.344 Y77.27 E3.80754
G1 X71.344 Y77.846 E3.82704
G1 X77.846 Y71.344 E4.13829
G1 X78.421 Y71.344 E4.15775
G1 X71.344 Y78.421 E4.49652
G1 X71.344 Y78.997 E4.51602
G1 X78.997 Y71.344 E4.88236
G1 X79.573 Y71.344 E4.90186
G1 X71.344 Y79.573 E5.29578
G1 X71.344 Y80.149 E5.31528
G1 X80.149 Y71.344 E5.73677
G1 X80.724 Y71.344 E5.75623
G1 X71.344 Y80.724 E6.20524
G1 X71.344 Y81.3 E6.22474
G1 X81.3 Y71.344 E6.70133
G1 X81.876 Y71.344 E6.72083
G1 X71.344 Y81.876 E7.22499
G1 X71.344 Y82.451 E7.24445
G1 X82.451 Y71.344 E7.77614
G1 X83.027 Y71.344 E7.79564
G1 X71.344 Y83.027 E8.3549
G1 X71.344 Y83.603 E8.3744
G1 X83.603 Y71.344 E8.96123
G1 X84.178 Y71.344 E8.98069
G1 X71.344 Y84.178 E9.59505
G1 X71.344 Y84.754 E9.61455
G1 X84.754 Y71.344 E10.25648
G1 X85.33 Y71.344 E10.27598
G1 X71.344 Y85.33 E10.94548
G1 X71.344 Y85.906 E10.96498
G1 X85.906 Y71.344 E11.66205
G1 X86.481 Y71.344 E11.68151
G1 X71.344 Y86.481 E12.40611
G1 X71.344 Y87.057 E12.42561
G1 X87.057 Y71.344 E13.17778
G1 X87.633 Y71.344 E13.19728
G1 X71.344 Y87.633 E13.97702
G1 X71.344 Y88.208 E13.99648
G1 X88.208 Y71.344 E14.80375
G1 X88.784 Y71.344 E14.82325
G1 X71.344 Y88.784 E15.65809
G1 X71.344 Y89.36 E15.67759
G1 X89.36 Y71.344 E16.54
G1 X89.935 Y71.344 E16.55946
G1 X71.344 Y89.935 E17.4494
G1 X71.344 Y90.511 E17.4689
G1 X90.511 Y71.344 E18.38641
G1 X91.087 Y71.344 E18.40591
G1 X71.344 Y91.087 E19.351
G1 X71.344 Y91.662 E19.37046
G1 X91.662 Y71.344 E20.34307
G1 X92.238 Y71.344 E20.36257
G1 X71.344 Y92.238 E21.36275
G1 X71.344 Y92.814 E21.38225
G1 X92.814 Y71.344 E22.41001
G1 X93.39 Y71.344 E22.42951
G1 X71.344 Y93.39 E23.48484
G1 X71.344 Y93.965 E23.5043
G1 X93.965 Y71.344 E24.58715
G1 X94.541 Y71.344 E24.60665
G1 X71.344 Y94.541 E25.71708
G1 X71.344 Y95.117 E25.73658
G1 X95.117 Y71.344 E26.87458
G1 X95.692 Y71.344 E26.89404
G1 X71.344 Y95.692 E28.05956
G1 X71.344 Y96.268 E28.07906
G1 X96.268 Y71.344 E29.27216
G1 X96.844 Y71.344 E29.29166
G1 X71.344 Y96.844 E30.51233
G1 X71.344 Y97.419 E30.53179
G1 X97.419 Y71.344 E31.77998
G1 X97.995 Y71.344 E31.79948
G1 X71.344 Y97.995 E33.07525
G1 X71.344 Y98.571 E33.09475
G1 X98.571 Y71.344 E34.39809
G1 X99.147 Y71.344 E34.41759
G1 X71.344 Y99.147 E35.7485
